Newaita-dark/actions/24/system-help.svg

<svg height="24" viewBox="0 0 24 24" width="24" xmlns="http://www.w3.org/2000/svg"><g fill="#e0e0e0"><path d="m11.90625 2.171875c-5.496094 0-9.921875 4.425781-9.921875 9.921875 0 5.5 4.425781 9.925781 9.921875 9.925781 5.5 0 9.925781-4.425781 9.925781-9.925781 0-5.496094-4.425781-9.921875-9.925781-9.921875zm0 1.984375c4.398438 0 7.9375 3.539062 7.9375 7.9375s-3.539062 7.9375-7.9375 7.9375-7.9375-3.539062-7.9375-7.9375 3.539062-7.9375 7.9375-7.9375zm0 0"/><path d="m11.410156 17.550781h.992188c.273437 0 .496094-.21875.496094-.496093v-.992188c0-.273438-.222657-.496094-.496094-.496094h-.992188c-.273437 0-.496094.222656-.496094.496094v.992188c0 .277343.222657.496093.496094.496093zm0 0"/><path d="m11.90625 6.105469c-1.011719 0-1.925781.207031-2.660156.636719-.746094.441406-1.34375 1.195312-1.34375 2.128906 0 .28125.230468.511718.515625.511718h1.027343c.285157 0 .515626-.230468.515626-.511718 0-.085938-.003907-.160156.328124-.355469.3125-.183594.898438-.351563 1.617188-.351563s1.246094.167969 1.515625.375c.292969.226563.433594.4375.433594 1.074219 0 .425781-.074219.539063-.210938.695313-.117187.132812-.34375.277344-.644531.402344s-.675781.230468-1.066406.414062c-.191406.089844-.433594.222656-.648438.449219-.242187.257812-.40625.605469-.40625 1.015625v.992187c0 .285157.230469.515625.515625.515625h1.027344c.285156 0 .515625-.230468.515625-.515625v-.644531c.179688-.070312.472656-.167969.855469-.328125.433593-.179687.964843-.449219 1.398437-.945313.445313-.503906.722656-1.214843.722656-2.050781 0-1.125-.453124-2.105469-1.242187-2.707031-.773437-.59375-1.75-.800781-2.765625-.800781zm0 0"/></g></svg>

<?xml version="1.0" encoding="UTF-8"?>
<svg xmlns="http://www.w3.org/2000/svg" xmlns:xlink="http://www.w3.org/1999/xlink" width="24px" height="24px" viewBox="0 0 24 24" version="1.1">
<g id="surface1">
<path style=" stroke:none;fill-rule:nonzero;fill:rgb(87.843138%,87.843138%,87.843138%);fill-opacity:1;" d="M 11.90625 2.171875 C 6.410156 2.171875 1.984375 6.597656 1.984375 12.09375 C 1.984375 17.59375 6.410156 22.019531 11.90625 22.019531 C 17.40625 22.019531 21.832031 17.59375 21.832031 12.09375 C 21.832031 6.597656 17.40625 2.171875 11.90625 2.171875 Z M 11.90625 4.15625 C 16.304688 4.15625 19.84375 7.695312 19.84375 12.09375 C 19.84375 16.492188 16.304688 20.03125 11.90625 20.03125 C 7.507812 20.03125 3.96875 16.492188 3.96875 12.09375 C 3.96875 7.695312 7.507812 4.15625 11.90625 4.15625 Z M 11.90625 4.15625 "/>
<path style=" stroke:none;fill-rule:nonzero;fill:rgb(87.843138%,87.843138%,87.843138%);fill-opacity:1;" d="M 11.410156 17.550781 L 12.402344 17.550781 C 12.675781 17.550781 12.898438 17.332031 12.898438 17.054688 L 12.898438 16.0625 C 12.898438 15.789062 12.675781 15.566406 12.402344 15.566406 L 11.410156 15.566406 C 11.136719 15.566406 10.914062 15.789062 10.914062 16.0625 L 10.914062 17.054688 C 10.914062 17.332031 11.136719 17.550781 11.410156 17.550781 Z M 11.410156 17.550781 "/>
<path style=" stroke:none;fill-rule:nonzero;fill:rgb(87.843138%,87.843138%,87.843138%);fill-opacity:1;" d="M 11.90625 6.105469 C 10.894531 6.105469 9.980469 6.3125 9.246094 6.742188 C 8.5 7.183594 7.902344 7.9375 7.902344 8.871094 C 7.902344 9.152344 8.132812 9.382812 8.417969 9.382812 L 9.445312 9.382812 C 9.730469 9.382812 9.960938 9.152344 9.960938 8.871094 C 9.960938 8.785156 9.957031 8.710938 10.289062 8.515625 C 10.601562 8.332031 11.1875 8.164062 11.90625 8.164062 C 12.625 8.164062 13.152344 8.332031 13.421875 8.539062 C 13.714844 8.765625 13.855469 8.976562 13.855469 9.613281 C 13.855469 10.039062 13.78125 10.152344 13.644531 10.308594 C 13.527344 10.441406 13.300781 10.585938 13 10.710938 C 12.699219 10.835938 12.324219 10.941406 11.933594 11.125 C 11.742188 11.214844 11.5 11.347656 11.285156 11.574219 C 11.042969 11.832031 10.878906 12.179688 10.878906 12.589844 L 10.878906 13.582031 C 10.878906 13.867188 11.109375 14.097656 11.394531 14.097656 L 12.421875 14.097656 C 12.707031 14.097656 12.9375 13.867188 12.9375 13.582031 L 12.9375 12.9375 C 13.117188 12.867188 13.410156 12.769531 13.792969 12.609375 C 14.226562 12.429688 14.757812 12.160156 15.191406 11.664062 C 15.636719 11.160156 15.914062 10.449219 15.914062 9.613281 C 15.914062 8.488281 15.460938 7.507812 14.671875 6.90625 C 13.898438 6.3125 12.921875 6.105469 11.90625 6.105469 Z M 11.90625 6.105469 "/>
</g>
</svg>
